X:1
T:Jackson, CM
T:Thomas Jackson, 1780
T:Jackson, CM
T:Public Domain
C:Thomas Jackson, 1780
Z:Public Domain
%%score ( 1 2 ) ( 3 4 )
L:1/8
M:none
K:C
V:1 treble 
V:2 treble 
V:3 bass 
V:4 bass 
V:1
 (EC) | [CG]2 (cB) [CA]2 [CG]2 | [CF]2 (GF) [CE]2 (E^F) | [DG]2 [Ec]2 B2 (DC) x | [B,G]6 (GF) | %5
 [CE]2 [CE]2 [CF]2 [CG]2 | [CA]2 ([Fd][Ec]) [DB]2 [Ec]2 | [CG]2 (AF) [CE]2 [B,D]2 | C6 |] %9
V:2
 G2 | x2 C2 x4 | x2 B,2 x C2 x | x4 D3 A2 | x6 D2 | x8 | x8 | x2 C2 x4 | C6 |] %9
V:3
 [C,E,]2 | [E,G,]2 [C,E,]2 F,2 [E,G,]2 | [D,A,]2 [G,,G,]2 [C,G,]2 [A,,C]2 | %3
 [B,,B,]2 (A,G,) [D,G,]2 [D,^F,]2 x | [G,,G,]6 [B,,G,]2 | [C,G,]2 [_B,,G,]2 [A,,F,]2 [C,E,]2 | %6
 F,2 [D,A,]2 [G,B,]2 (G,C) | [E,C]2 [F,A,]2 G,2 (G,F,) | [C,E,]6 |] %9
V:4
 x2 | x4 F,2 x2 | x8 | x2 C,2 x5 | x8 | x8 | F,2 x2 C,2 x2 | x4 G,2 G,,2 | x6 |] %9

